icons/communication/email-search-24.svg

<svg width="24" height="24" viewBox="0 0 24 24" fill="none" xmlns="http://www.w3.org/2000/svg">
<path fill-rule="evenodd" clip-rule="evenodd" d="M14 17.25C14 15.1789 15.6789 13.5 17.75 13.5C19.8211 13.5 21.5 15.1789 21.5 17.25C21.5 18.1427 21.188 18.9626 20.6672 19.6066L22.7803 21.7197C23.0732 22.0126 23.0732 22.4874 22.7803 22.7803C22.4874 23.0732 22.0126 23.0732 21.7197 22.7803L19.5045 20.5651C18.981 20.8427 18.3838 21 17.75 21C15.6789 21 14 19.3211 14 17.25ZM17.75 15C16.5074 15 15.5 16.0074 15.5 17.25C15.5 18.4926 16.5074 19.5 17.75 19.5C18.9926 19.5 20 18.4926 20 17.25C20 16.0074 18.9926 15 17.75 15Z" fill="black"/>
<path fill-rule="evenodd" clip-rule="evenodd" d="M0 4.75C0 3.7835 0.783502 3 1.75 3H22.25C23.2165 3 24 3.7835 24 4.75V11.375C24 11.7892 23.6642 12.125 23.25 12.125C22.8358 12.125 22.5 11.7892 22.5 11.375V7.18716L12.7516 11.8231C12.276 12.0492 11.724 12.0492 11.2484 11.8231L1.5 7.18715V18.75C1.5 18.8881 1.61193 19 1.75 19H9.25C9.66421 19 10 19.3358 10 19.75C10 20.1642 9.66421 20.5 9.25 20.5H1.75C0.783502 20.5 0 19.7165 0 18.75V4.75ZM1.5 5.52618L11.8926 10.4685C11.9606 10.5008 12.0394 10.5008 12.1074 10.4685L22.5 5.52618V4.75C22.5 4.61193 22.3881 4.5 22.25 4.5H1.75C1.61193 4.5 1.5 4.61193 1.5 4.75V5.52618Z" fill="black"/>
</svg>

<svg xmlns="http://www.w3.org/2000/svg" width="24" height="24"><path fill-rule="evenodd" d="M14 17.25a3.75 3.75 0 116.667 2.357l2.113 2.113a.75.75 0 11-1.06 1.06l-2.215-2.215A3.75 3.75 0 0114 17.25zM17.75 15a2.25 2.25 0 100 4.5 2.25 2.25 0 000-4.5z"/><path fill-rule="evenodd" d="M0 4.75C0 3.784.784 3 1.75 3h20.5c.966 0 1.75.784 1.75 1.75v6.625a.75.75 0 01-1.5 0V7.187l-9.748 4.636a1.75 1.75 0 01-1.504 0L1.5 7.187V18.75c0 .138.112.25.25.25h7.5a.75.75 0 010 1.5h-7.5A1.75 1.75 0 010 18.75v-14zm1.5.776l10.393 4.943a.25.25 0 00.214 0L22.5 5.526V4.75a.25.25 0 00-.25-.25H1.75a.25.25 0 00-.25.25v.776z"/></svg>
